Sources/FrostedUI/Resources/Icons.xcassets/logout24.imageset/logout-24.svg

<svg width="24" height="24" viewBox="0 0 24 24" fill="none" xmlns="http://www.w3.org/2000/svg" data-fui-icon="true">
  <path
    d="M10.625 2.25C13.2484 2.25 15.375 4.37665 15.375 7C15.375 7.41421 15.0392 7.75 14.625 7.75C14.2108 7.75 13.875 7.41421 13.875 7C13.875 5.20507 12.4199 3.75 10.625 3.75H7.125C5.05393 3.75 3.375 5.42893 3.375 7.5V16.5C3.375 18.5711 5.05394 20.25 7.125 20.25H10.625C12.4199 20.25 13.875 18.7949 13.875 17C13.875 16.5858 14.2108 16.25 14.625 16.25C15.0392 16.25 15.375 16.5858 15.375 17C15.375 19.6234 13.2484 21.75 10.625 21.75H7.125C4.22552 21.75 1.875 19.3995 1.875 16.5V7.5C1.875 4.60051 4.22551 2.25 7.125 2.25H10.625ZM18.5312 7.66406C18.8547 7.40531 19.3272 7.4578 19.5859 7.78125L22.5859 11.5312C22.8051 11.8052 22.8051 12.1948 22.5859 12.4688L19.5859 16.2188C19.3272 16.5422 18.8547 16.5947 18.5312 16.3359C18.2078 16.0772 18.1553 15.6047 18.4141 15.2812L20.4395 12.75H10C9.58579 12.75 9.25 12.4142 9.25 12C9.25 11.5858 9.58579 11.25 10 11.25H20.4395L18.4141 8.71875C18.1553 8.3953 18.2078 7.92282 18.5312 7.66406Z"
    fill="currentColor"
  />
</svg>

<svg xmlns="http://www.w3.org/2000/svg" width="24" height="24" fill="none" data-fui-icon="true" viewBox="0 0 24 24"><path fill="currentColor" d="M10.625 2.25A4.75 4.75 0 0 1 15.375 7a.75.75 0 0 1-1.5 0 3.25 3.25 0 0 0-3.25-3.25h-3.5a3.75 3.75 0 0 0-3.75 3.75v9a3.75 3.75 0 0 0 3.75 3.75h3.5a3.25 3.25 0 0 0 3.25-3.25.75.75 0 0 1 1.5 0 4.75 4.75 0 0 1-4.75 4.75h-3.5a5.25 5.25 0 0 1-5.25-5.25v-9c0-2.9 2.35-5.25 5.25-5.25zm7.906 5.414a.75.75 0 0 1 1.055.117l3 3.75a.75.75 0 0 1 0 .938l-3 3.75a.75.75 0 0 1-1.172-.938l2.025-2.531H10a.75.75 0 0 1 0-1.5h10.44l-2.026-2.531a.75.75 0 0 1 .117-1.055"/></svg>
